img/svg/add_favorites.svg

<svg width="22" height="20" viewBox="0 0 22 20" fill="none" xmlns="http://www.w3.org/2000/svg">
<path fill-rule="evenodd" clip-rule="evenodd" d="M4.22448 20L11 16.5877L17.7755 20L16.4806 12.7675L22 7.61373L14.3758 6.55248L11 0L7.62415 6.55248L0 7.61373L5.51942 12.7675L4.22448 20ZM15.0732 16.3949L11 14.3435L6.92677 16.3949L7.70375 12.0552L4.44635 9.01363L8.95147 8.38653L11 4.41037L13.0485 8.38653L17.5537 9.01363L14.2962 12.0552L15.0732 16.3949Z" fill="#A5FF14"/>
</svg>

<svg width="22" height="20" fill="none" xmlns="http://www.w3.org/2000/svg"><path fill-rule="evenodd" clip-rule="evenodd" d="M4.224 20L11 16.588 17.776 20l-1.295-7.232L22 7.614l-7.624-1.062L11 0 7.624 6.552 0 7.614l5.52 5.154L4.223 20zm10.85-3.605L11 14.344l-4.073 2.05.777-4.339-3.258-3.041 4.505-.627L11 4.41l2.049 3.977 4.505.627-3.258 3.041.777 4.34z" fill="#A5FF14"/></svg>
